X:1013
T:The Game Cock.
M:C
L:1/8
Q:1/4=120
I: :| ||
Z:Jack Campin * www.campin.me.uk * 2009
K:D
A|F<Ad>A B>Ad>A|B<dA>F E/E/E E2|F<AdA  BA`dA |Bd`AF  D/D/D D:|
g|fe`d>e d>efg |a>da>f e/e/e eg|fe`d>e d>efe |d<BA>F D/D/D Dg|
  f>ed>e d>ef>g|a>da>f e/e/e eg|f<ae>f d<eB>d|A>Fd>F D/D/D D|]
<end>
<start>
